**kern	**kern
*part1	*part1
*staff2	*staff1
*I"Piano	*
*clefF4	*clefG2
*k[b-e-a-]	*k[b-e-a-]
=1	=1
*	*^
4.EE- 4.E-	(8gL	[4.G [4.c
.	8f	.
.	[8e-J	.
=	=	=
4CC 4C	8e-L]	4.G] 4.c]
.	8d	.
8BBB- 8BB-	8cJ	.
=	=	=
(4AAA- 4AA-	8A-L 8c	(4E-
.	8d	.
8GGG 8GG	8B-J	8E-)
*	*v	*v
=	=
8FFFL 8FF	8E-L 8A- 8c
8GGG 8GG	8A- 8c 8f
8AAA-J) 8AA-	8GJ) 8c 8e-
=	=
*	*^
(4BBB- 4BB-	(8B-L 8d	4F
.	8e-	.
8AAA- 8AA-	8cJ	8F
*	*v	*v
=	=
8GGGL 8GG	8FL 8B- 8d
8AAA- 8AA-	8B- 8d 8g
8BBB-J) 8BB-	8A-J) 8d 8f
=	=
*	*^
(4CC 4C	(8e-L	4G
.	8f	.
8BBB- 8BB-	8dJ	8G
*	*v	*v
=	=
*-	*-
!!!system-decoration: {(s1,s2)}
